static/assets/images/networks/berachain.svg

<svg width="256" height="256" viewBox="0 0 256 256" fill="none" xmlns="http://www.w3.org/2000/svg">
<path d="M128 256C198.692 256 256 198.692 256 128C256 57.3075 198.692 0 128 0C57.3075 0 0 57.3075 0 128C0 198.692 57.3075 256 128 256Z" fill="white"/>
<path d="M127.836 114.957C129.456 118.976 131.916 123.078 135.213 127.264C137.169 129.746 138.642 132.589 139.634 135.792C140.521 138.659 140.902 141.782 140.777 145.163C140.462 153.598 137.624 161.279 132.262 168.206C130.819 170.074 129.227 171.556 127.485 172.652C123.296 175.292 118.726 176.804 113.776 177.189C108.144 177.625 102.655 177.854 97.3088 177.874C96.7787 177.874 96.2612 178.046 95.8333 178.365C92.9386 180.504 89.7779 182.114 86.3511 183.193C83.5492 184.075 80.7775 184.008 78.0361 182.993C75.7623 182.156 73.6356 181.036 71.6562 179.633C71.0111 179.172 70.3378 178.757 69.6364 178.39C68.9913 178.046 68.2455 177.872 67.3989 177.868C61.7668 177.823 56.5661 177.623 51.7968 177.267C47.608 176.956 43.5886 175.781 39.7385 173.743C37.0535 172.32 34.7515 170.363 32.8325 167.872C31.3206 165.907 29.8149 163.347 28.3151 160.193C26.376 156.113 25.1826 151.847 24.7351 147.395C24.1102 141.156 25.3258 135.401 28.3817 130.133C28.3857 130.12 29.7806 128.161 32.5664 124.255C34.6104 121.388 36.3036 118.355 37.6461 115.157C37.7179 114.988 37.7451 114.804 37.725 114.621C37.7049 114.438 37.6381 114.264 37.5312 114.114C33.6529 108.651 31.0505 102.711 29.7242 96.2932C29.1476 93.5112 29.3633 90.2662 30.3712 86.5582C32.5482 78.5477 37.6743 73.857 45.7495 72.4862C49.6037 71.8312 53.4618 72.2699 57.3241 73.8025C61.6096 75.5008 65.5706 77.8663 69.207 80.8991C69.7754 81.3762 70.4145 81.5137 71.124 81.3115C78.6428 79.1805 86.5003 79.2048 94.6964 81.3843C94.8734 81.4316 95.0585 81.4381 95.2376 81.4035C95.4168 81.3688 95.5853 81.2938 95.7305 81.1841C98.1333 79.3807 100.717 77.6419 103.483 75.9678C109.966 72.0374 116.634 71.2266 123.488 73.5356C125.552 74.227 127.312 75.1773 128.767 76.3863C130.371 77.7127 131.694 79.2654 132.734 81.0446C134.169 83.5032 135.159 86.2549 135.703 89.2998C136.227 92.2354 136.112 95.2197 135.358 98.2524C134.286 102.535 132.927 106.014 131.283 108.691C130.117 110.584 128.983 112.494 127.878 114.423C127.831 114.504 127.802 114.594 127.795 114.687C127.788 114.779 127.802 114.872 127.836 114.957Z" fill="#875426"/>
<path d="M176.039 150.451C180 151.476 182.946 153.585 184.877 156.778C185.994 158.624 186.813 161.169 187.335 164.413C187.751 166.999 187.955 169.692 187.947 172.495C187.945 172.644 187.885 172.787 187.78 172.892C187.675 172.997 187.534 173.056 187.386 173.056H177.013C176.959 173.056 176.906 173.045 176.856 173.023C176.806 173.002 176.762 172.97 176.725 172.93C176.688 172.889 176.659 172.842 176.641 172.79C176.622 172.739 176.615 172.684 176.618 172.629C176.848 169.274 176.508 166.193 175.599 163.386C175.447 162.91 175.228 162.876 174.944 163.284C174.409 164.05 173.827 164.7 173.199 165.236C172.524 165.81 171.758 166.176 170.9 166.333C168.523 166.775 166.617 165.912 165.182 163.743C164.868 163.271 164.617 163.303 164.43 163.839C163.997 165.068 163.787 166.333 163.8 167.634C163.817 169.233 163.736 170.932 163.558 172.731C163.548 172.82 163.507 172.903 163.441 172.963C163.375 173.023 163.29 173.056 163.201 173.056H152.561C152.451 173.056 152.346 173.013 152.268 172.937C152.189 172.861 152.144 172.757 152.14 172.648C152.043 168.816 152.368 165.213 153.115 161.836C154.359 156.211 157.914 152.456 163.781 150.572C163.91 150.529 164.023 150.447 164.103 150.337C164.183 150.227 164.226 150.095 164.227 149.96V146.707C164.226 146.613 164.195 146.522 164.137 146.449C164.079 146.376 163.998 146.325 163.908 146.305C160.185 145.442 157.32 143.462 155.312 140.366C153.724 137.917 152.724 134.785 152.312 130.971C151.756 125.851 152.134 120.802 153.446 115.822C154.851 110.486 158.334 106.999 163.895 105.362C163.99 105.334 164.072 105.277 164.131 105.2C164.189 105.123 164.221 105.03 164.22 104.934L164.201 101.49C164.199 101.401 164.167 101.315 164.11 101.244C164.053 101.172 163.973 101.12 163.883 101.094C157.939 99.3976 154.325 95.4813 153.038 89.3452C152.3 85.8371 152.005 82.2885 152.153 78.6996C152.156 78.6122 152.193 78.5294 152.256 78.4687C152.319 78.4081 152.403 78.3742 152.491 78.3743L163.22 78.336C163.311 78.3358 163.398 78.3699 163.464 78.4315C163.53 78.493 163.571 78.5775 163.577 78.6677C163.743 80.6238 163.813 82.533 163.787 84.3955C163.77 85.6457 164.029 86.8279 164.564 87.942C164.578 87.973 164.6 87.9997 164.628 88.0195C164.655 88.0393 164.688 88.0517 164.723 88.0555C164.758 88.0593 164.794 88.0544 164.827 88.0413C164.86 88.0281 164.89 88.0071 164.914 87.9802C168.298 84.2425 171.685 84.3615 175.077 88.3374C175.37 88.6819 175.576 88.6372 175.695 88.2035C176.493 85.2949 176.801 82.1588 176.618 78.7953C176.615 78.7362 176.623 78.677 176.644 78.6214C176.664 78.5658 176.695 78.515 176.736 78.4719C176.776 78.4289 176.825 78.3947 176.88 78.3713C176.934 78.3479 176.992 78.3359 177.051 78.336H187.463C187.587 78.336 187.705 78.3848 187.794 78.472C187.882 78.5591 187.932 78.6776 187.934 78.8016C188.002 82.3948 187.677 85.8158 186.96 89.0646C186.238 92.3558 185.115 94.8902 183.591 96.6677C181.681 98.9001 179.165 100.38 176.045 101.107C175.951 101.129 175.868 101.18 175.807 101.251C175.747 101.323 175.714 101.412 175.714 101.503L175.695 104.794C175.695 104.898 175.73 105.001 175.796 105.085C175.861 105.169 175.953 105.23 176.058 105.259C179.573 106.186 182.294 107.96 184.221 110.579C185.678 112.565 186.726 115.45 187.367 119.235C188.369 125.171 188.085 130.939 186.514 136.539C185.058 141.727 181.619 145.01 176.198 146.388C176.09 146.415 175.994 146.468 175.924 146.538C175.854 146.608 175.814 146.692 175.81 146.777L175.682 150.062C175.678 150.144 175.712 150.228 175.777 150.299C175.842 150.37 175.934 150.423 176.039 150.451ZM174.937 118.138C174.309 119.239 173.454 120.07 172.371 120.632C171.28 121.197 170.163 121.401 169.022 121.244C167.599 121.044 166.423 120.293 165.494 118.992C164.84 118.074 164.42 118.172 164.233 119.286C163.477 123.763 163.515 128.373 164.348 133.114C164.411 133.497 164.581 133.552 164.857 133.28C168.512 129.623 171.9 129.717 175.02 133.561C175.33 133.939 175.546 133.892 175.67 133.42C177.007 128.33 176.998 123.266 175.644 118.227C175.483 117.623 175.247 117.593 174.937 118.138Z" fill="#875426"/>
<path d="M221.097 127.801C226.345 129.064 229.741 132.177 231.286 137.139C232.729 141.757 233.222 146.573 232.763 151.586C232.339 156.293 231.475 159.812 230.172 162.142C228.312 165.472 225.196 167.783 220.824 169.076C220.754 169.097 220.692 169.139 220.649 169.198C220.605 169.257 220.581 169.328 220.582 169.401V172.629C220.582 172.684 220.571 172.738 220.551 172.789C220.53 172.84 220.5 172.886 220.462 172.924C220.424 172.963 220.379 172.993 220.33 173.014C220.28 173.034 220.227 173.044 220.174 173.043L209.718 172.948C209.64 172.947 209.565 172.913 209.509 172.851C209.453 172.789 209.421 172.704 209.419 172.616L209.355 169.35C209.353 169.26 209.319 169.173 209.258 169.101C209.197 169.03 209.113 168.978 209.018 168.955C205.876 168.155 203.342 166.622 201.415 164.356C199.869 162.536 198.729 159.953 197.995 156.606C196.675 150.542 196.823 144.427 198.441 138.262C199.859 132.857 203.323 129.395 208.833 127.877C209.018 127.825 209.18 127.713 209.291 127.561C209.403 127.409 209.457 127.226 209.444 127.042L209.266 124.108C209.26 124.015 209.224 123.925 209.162 123.852C209.101 123.779 209.017 123.726 208.922 123.7C205.322 122.722 202.576 120.908 200.682 118.259C199.243 116.239 198.22 113.305 197.613 109.456C196.738 103.933 197.048 98.4047 198.543 92.8725C199.956 87.6294 203.42 84.2297 208.935 82.6734C209.076 82.6338 209.2 82.5549 209.287 82.4495C209.373 82.3441 209.418 82.2184 209.413 82.0929L209.279 78.6613C209.277 78.6191 209.283 78.577 209.296 78.5375C209.31 78.498 209.33 78.4619 209.356 78.4315C209.382 78.4011 209.414 78.3769 209.449 78.3605C209.484 78.3441 209.521 78.3358 209.559 78.336H220.066C220.166 78.3353 220.262 78.3687 220.334 78.4293C220.406 78.4899 220.449 78.573 220.454 78.6613L220.677 81.9717C220.684 82.0943 220.718 82.2091 220.774 82.2995C220.83 82.39 220.906 82.4516 220.989 82.4756C224.585 83.5557 227.34 85.3948 229.255 87.993C230.719 89.9831 231.772 92.9384 232.413 96.859C233.36 102.697 233.077 108.27 231.566 113.577C230.08 118.786 226.646 122.16 221.263 123.7C221.168 123.727 221.082 123.779 221.013 123.85C220.944 123.922 220.894 124.01 220.868 124.108C220.537 125.345 220.482 126.449 220.703 127.418C220.722 127.509 220.769 127.594 220.839 127.662C220.909 127.729 220.998 127.778 221.097 127.801ZM220.225 95.4749C216.757 99.3955 213.375 99.504 210.081 95.8002C209.733 95.409 209.497 95.4685 209.374 95.9788C208.232 100.75 208.262 105.644 209.464 110.662C209.561 111.057 209.718 111.085 209.935 110.745C211.637 108.083 214.165 107.286 217.519 108.353C218.011 108.51 218.947 109.361 220.327 110.904C220.471 111.066 220.567 111.043 220.614 110.834C221.7 105.936 221.753 100.867 220.773 95.628C220.696 95.2028 220.514 95.1517 220.225 95.4749ZM219.531 155.113C219.748 155.407 219.913 155.651 220.028 155.847C220.406 156.51 220.669 156.466 220.817 155.713C221.225 153.591 221.433 151.497 221.441 149.43C221.454 146.968 221.45 145.497 221.429 145.016C221.356 143.515 221.07 142.057 220.569 140.641C220.497 140.437 220.391 140.417 220.251 140.583C216.532 145.035 213.032 145.014 209.75 140.52C209.618 140.337 209.527 140.356 209.476 140.577C208.262 145.658 208.254 150.757 209.451 155.872C209.527 156.217 209.671 156.249 209.884 155.968C212.529 152.426 215.541 151.931 218.92 154.482C219.149 154.656 219.353 154.867 219.531 155.113Z" fill="#875426"/>
</svg>

<svg xmlns="http://www.w3.org/2000/svg" fill="none" viewBox="0 0 256 256"><path fill="#fff" d="M128 256c70.692 0 128-57.308 128-128S198.692 0 128 0 0 57.308 0 128s57.308 128 128 128"/><path fill="#875426" d="M127.836 114.957q2.43 6.028 7.377 12.307 2.934 3.723 4.421 8.528 1.33 4.3 1.143 9.371-.472 12.652-8.515 23.043-2.164 2.802-4.777 4.446-6.284 3.96-13.709 4.537-8.448.654-16.467.685a2.47 2.47 0 0 0-1.476.491 32 32 0 0 1-9.482 4.828q-4.203 1.323-8.315-.2a27.3 27.3 0 0 1-6.38-3.36 17 17 0 0 0-2.02-1.243q-.967-.516-2.237-.522-8.448-.067-15.602-.601-6.283-.467-12.058-3.524-4.028-2.135-6.906-5.871-2.268-2.948-4.518-7.679a38.6 38.6 0 0 1-3.58-12.798q-.938-9.36 3.647-17.262.006-.02 4.184-5.878a47 47 0 0 0 5.08-9.098 1.07 1.07 0 0 0-.115-1.043q-5.817-8.195-7.807-17.82-.864-4.174.647-9.736 3.265-12.015 15.378-14.072 5.782-.982 11.575 1.316 6.429 2.548 11.883 7.097.853.716 1.917.412 11.278-3.195 23.572.073a1.21 1.21 0 0 0 1.035-.2 94 94 0 0 1 7.752-5.216q9.724-5.895 20.005-2.432 3.096 1.037 5.279 2.85a17.4 17.4 0 0 1 3.967 4.659q2.153 3.687 2.969 8.255.786 4.403-.345 8.952-1.609 6.424-4.075 10.439a209 209 0 0 0-3.405 5.732.62.62 0 0 0-.042.534m48.203 35.494q5.942 1.537 8.838 6.327 1.675 2.769 2.458 7.635.624 3.878.612 8.082a.57.57 0 0 1-.167.397.56.56 0 0 1-.394.164h-10.373a.4.4 0 0 1-.288-.126.4.4 0 0 1-.107-.301q.345-5.032-1.019-9.243-.228-.714-.655-.102a10.3 10.3 0 0 1-1.745 1.952 4.84 4.84 0 0 1-2.299 1.097q-3.566.663-5.718-2.59-.471-.708-.752.096a11 11 0 0 0-.63 3.795 47 47 0 0 1-.242 5.097.37.37 0 0 1-.117.232.36.36 0 0 1-.24.093h-10.64a.42.42 0 0 1-.421-.408q-.145-5.747.975-10.812 1.866-8.438 10.666-11.264a.65.65 0 0 0 .446-.612v-3.253a.42.42 0 0 0-.09-.258.4.4 0 0 0-.229-.144q-5.584-1.295-8.596-5.939-2.382-3.674-3-9.395a41.4 41.4 0 0 1 1.134-15.149q2.107-8.004 10.449-10.46a.46.46 0 0 0 .236-.162.44.44 0 0 0 .089-.266l-.019-3.444a.4.4 0 0 0-.091-.246.45.45 0 0 0-.227-.15q-8.915-2.544-10.845-11.749a43 43 0 0 1-.885-10.645.337.337 0 0 1 .338-.326l10.729-.038a.356.356 0 0 1 .357.332q.249 2.934.21 5.727a7.84 7.84 0 0 0 .777 3.547.2.2 0 0 0 .159.114.22.22 0 0 0 .191-.076q5.075-5.605 10.163.357.44.517.618-.133 1.197-4.364.923-9.409a.43.43 0 0 1 .118-.323.42.42 0 0 1 .315-.136h10.412a.47.47 0 0 1 .471.466q.102 5.39-.974 10.263-1.083 4.936-3.369 7.603-2.865 3.348-7.546 4.439a.45.45 0 0 0-.238.144.4.4 0 0 0-.093.252l-.019 3.291c0 .104.035.207.101.291a.5.5 0 0 0 .262.174q5.272 1.391 8.163 5.32 2.185 2.979 3.146 8.656 1.503 8.904-.853 17.304-2.184 7.782-10.316 9.849a.6.6 0 0 0-.274.15.37.37 0 0 0-.114.239l-.128 3.285a.33.33 0 0 0 .095.237.54.54 0 0 0 .262.152m-1.102-32.313q-.942 1.651-2.566 2.494-1.637.847-3.349.612-2.135-.3-3.528-2.252-.98-1.377-1.261.294-1.134 6.716.115 13.828.095.574.509.166 5.483-5.485 10.163.281.465.567.65-.141 2.005-7.635-.026-15.193-.242-.906-.707-.089m46.16 9.663q7.872 1.895 10.189 9.338 2.165 6.927 1.477 14.447-.636 7.06-2.591 10.556-2.79 4.995-9.348 6.934a.334.334 0 0 0-.242.325v3.228a.41.41 0 0 1-.252.385.4.4 0 0 1-.156.029l-10.456-.095a.3.3 0 0 1-.209-.097.37.37 0 0 1-.09-.235l-.064-3.266a.4.4 0 0 0-.097-.249.46.46 0 0 0-.24-.146q-4.713-1.2-7.603-4.599-2.319-2.73-3.42-7.75-1.98-9.096.446-18.344 2.127-8.108 10.392-10.385a.85.85 0 0 0 .458-.316.78.78 0 0 0 .153-.519l-.178-2.934a.44.44 0 0 0-.104-.256.5.5 0 0 0-.24-.152q-5.4-1.467-8.24-5.441-2.158-3.03-3.069-8.803-1.312-8.285.93-16.583 2.12-7.865 10.392-10.2a.7.7 0 0 0 .352-.224.53.53 0 0 0 .126-.356l-.134-3.432a.33.33 0 0 1 .077-.23.3.3 0 0 1 .093-.07.3.3 0 0 1 .11-.025h10.507c.1 0 .196.033.268.093s.115.144.12.232l.223 3.31a.7.7 0 0 0 .097.328.4.4 0 0 0 .215.177q5.394 1.62 8.266 5.517 2.196 2.985 3.158 8.866 1.42 8.757-.847 16.718-2.229 7.813-10.303 10.123a.56.56 0 0 0-.395.408q-.496 1.856-.165 3.31a.5.5 0 0 0 .136.244c.07.067.159.116.258.139m-.872-32.326q-5.203 5.88-10.144.325-.522-.586-.707.179-1.713 7.156.09 14.683.145.593.471.083 2.553-3.993 7.584-2.392.738.236 2.808 2.551.216.243.287-.07 1.629-7.347.159-15.206-.115-.637-.548-.153m-.694 59.638q.325.44.497.734.567.995.789-.134.612-3.183.624-6.283.02-3.693-.012-4.414a15.3 15.3 0 0 0-.86-4.375q-.108-.306-.318-.058-5.578 6.678-10.501-.063-.198-.274-.274.057-1.82 7.622-.025 15.295.114.518.433.096 3.968-5.313 9.036-1.486.344.261.611.631"/></svg>
